X: 29741
T: Nyth Y Gwcw
R: barndance
M: 4/4
K: Ddorian
|:E2|FEFE D2 d2|A2 A2 G4|FEFE D2 AB|c2 c2 E4|
FEFE D2 d2|A2 _BA G2 AG|FEFE DEFG|1 A2 A2 d2:|2 A2 A2 d3||
|:e|fefe d2 d2|cBA^G A4|defg a2 a/_b/a|g2 d2 d3 e|
fed^c d3 d|cBA^G A3 =G|FEFE DEFG|1 A2 A2 d3:|2 A2 A2 d2||

